X:1
T:Title
%%score ( 1 2 ) ( 3 4 )
L:1/8
Q:1/4=100
M:6/8
K:Ab
V:1 treble nm="Grand Piano, Soprano"
V:2 treble 
V:3 bass nm="Choir Pad, Crucified!"
V:4 bass 
V:1
 [CE] [Ec]2 [Ec][CA][DB] | [Ec] [FB]2 [FA]FG | [DA] [DG]2 [DG]G-[EG] | %3
w: By~Charles~Austin~Miles * * * *|||
 [DF] [CE]2- [CE]2- [CE]/ z/ | [CE] [Ec]2 [Ec][CA][DB] | c/-[_Gc]/ [Fd]2 [Fd][DF][FA] | %6
w: |||
 [=EB] [_Ec]2 [Ec] [Ec]2 | [DB] [CA]2- [CA]3- | [CA] [Ec]2 [Ec] [=EB]2- | [EB] [FA]2 [FA] [=EG]2 | %10
w: ||||
 [=EG] [DF]2 [FA] [_EG]2 | [DF] [CE]2- [CE]2- [CE]/ z/ | [CE] [EA]2 [EA] [=EB]2 | %13
w: |||
 [=EB] [Fc]2 [_Gc] [Fd]2 | z E2- E2- E/ z/ | [DB] A2- [DA-] [CA]2- | [CA]6 |] %17
w: ||||
V:2
 x6 | z3 z D2 | z3 z .D2 | x6 | x6 | .E3 z3 | x6 | x6 | x6 | x6 | x6 | x6 | x6 | x6 | %14
 [_CF] =C2 CB,C | z C2 z3 | x6 |] %17
V:3
 [A,,A,] [A,,A,]2 [A,,A,] [A,,A,]2 | [A,,A,] [D,A,]2 [D,A,]A,G, | [D,F,] [E,B,]2 [E,B,] [E,B,]2 | %3
 [E,G,] [A,,A,]2- [A,,A,]2- [A,,A,]/ z/ | [A,,A,] [A,,A,]2 [A,,A,] [A,,A,]2 | %5
 [A,,A,] [D,A,]2 [D,A,] [D,A,]2 | [D,A,] [E,A,]2 [E,A,] [E,G,]2 | [E,G,] [A,,A,]2- [A,,A,]3- | %8
 [A,,A,] A,2 A, [G,C]2- | [G,C] [F,C]2 [F,C] [C,C]2 | [C,B,] [D,A,]2 [D,D] [D,D]2 | %11
 [D,A,] [A,,A,]2- [A,,A,]2- [A,,A,]/ z/ | [A,,A,] [A,C]2 [A,C] [G,C]2 | %13
 [G,C] [F,A,]2 [E,A,] [D,A,]2 | [=D,A,] [E,A,]2 [E,A,] [E,G,]2 | [E,G,] A,2 F, E,2- | E,6 |] %17
V:4
 x6 | z3 z D,2 | x6 | x6 | x6 | x6 | x6 | x6 | x6 | x6 | x6 | x6 | x6 | x6 | x6 | z A,,2- A,,3- | %16
 A,,6 |] %17

